Numix-GalliumOS/48/categories/applications-viewers.svg

<?xml version="1.0" encoding="UTF-8" standalone="no"?>
<svg
   xmlns:dc="http://purl.org/dc/elements/1.1/"
   xmlns:cc="http://creativecommons.org/ns#"
   xmlns:rdf="http://www.w3.org/1999/02/22-rdf-syntax-ns#"
   xmlns:svg="http://www.w3.org/2000/svg"
   xmlns="http://www.w3.org/2000/svg"
   xmlns:sodipodi="http://sodipodi.sourceforge.net/DTD/sodipodi-0.dtd"
   xmlns:inkscape="http://www.inkscape.org/namespaces/inkscape"
   viewBox="0 0 48 48"
   id="svg2"
   version="1.1"
   inkscape:version="0.91 r"
   sodipodi:docname="applications-viewers.svg">
  <metadata
     id="metadata14">
    <rdf:RDF>
      <cc:Work
         rdf:about="">
        <dc:format>image/svg+xml</dc:format>
        <dc:type
           rdf:resource="http://purl.org/dc/dcmitype/StillImage" />
        <dc:title />
      </cc:Work>
    </rdf:RDF>
  </metadata>
  <defs
     id="defs12" />
  <sodipodi:namedview
     pagecolor="#ffffff"
     bordercolor="#666666"
     borderopacity="1"
     objecttolerance="10"
     gridtolerance="10"
     guidetolerance="10"
     inkscape:pageopacity="0"
     inkscape:pageshadow="2"
     inkscape:window-width="1920"
     inkscape:window-height="1056"
     id="namedview10"
     showgrid="true"
     inkscape:zoom="17.645833"
     inkscape:cx="8.50059"
     inkscape:cy="24"
     inkscape:window-x="0"
     inkscape:window-y="24"
     inkscape:window-maximized="1"
     inkscape:current-layer="svg2">
    <inkscape:grid
       type="xygrid"
       id="grid4142" />
  </sodipodi:namedview>
  <path
     inkscape:connector-curvature="0"
     id="path6"
     d="m 23.990858,13.0002 c -0.375583,0 -0.735317,0.035 -1.097368,0.049 -4.42116,0.1727 -7.84104,1.3335 -10.210298,2.5527 -2.563276,1.3185 -4.0554887,2.7982 -4.0554887,2.7982 -0.840922,0.8758 -0.836222,2.4575 0.0099,3.3282 0.84611,0.8704 2.3832977,0.8752 3.2345047,0.017 0,0 0.634793,-0.6434 2.051601,-1.4727 -0.41616,1.1707 -0.620253,2.4193 -0.620253,3.731 0,6.0456 4.812046,10.9964 10.687414,10.9964 5.87537,0 10.687416,-4.9511 10.687416,-10.9964 0,-1.3119 -0.204094,-2.5604 -0.620251,-3.731 1.416807,0.8293 2.0516,1.4727 2.0516,1.4727 0.847466,0.8825 2.401496,0.8874 3.254156,0.017 0.852662,-0.8775 0.847998,-2.4766 -0.0097,-3.3485 0,0 -1.492216,-1.4797 -4.055495,-2.7982 -2.369256,-1.2191 -5.789137,-2.38 -10.210298,-2.5528 -0.358125,-0.038 -0.730156,-0.049 -1.097367,-0.049 z m 0,3.4559 c 3.399983,0 8.108094,1.6025 8.108094,7.5408 0,5.1988 -3.207362,8.2796 -8.108094,8.2796 -4.829264,0 -8.036629,-3.1549 -8.036629,-8.2796 0,-5.2729 4.636648,-7.5408 8.036629,-7.5408 z"
     style="color:#000000;line-height:normal;fill:#4cb29d" />
  <path
     style="color:#000000;font-style:normal;font-variant:normal;font-weight:normal;font-stretch:normal;font-size:medium;line-height:normal;font-family:sans-serif;text-indent:0;text-align:start;text-decoration:none;text-decoration-line:none;text-decoration-style:solid;text-decoration-color:#000000;letter-spacing:normal;word-spacing:normal;text-transform:none;direction:ltr;block-progression:tb;writing-mode:lr-tb;baseline-shift:baseline;text-anchor:start;white-space:normal;clip-rule:nonzero;display:inline;overflow:visible;visibility:visible;opacity:1;isolation:auto;mix-blend-mode:normal;color-interpolation:sRGB;color-interpolation-filters:linearRGB;solid-color:#000000;solid-opacity:1;fill:#4cb29d;fill-opacity:1;fill-rule:nonzero;stroke:none;stroke-width:5;stroke-linecap:round;stroke-linejoin:round;stroke-miterlimit:4;stroke-dasharray:none;stroke-dashoffset:0;stroke-opacity:1;color-rendering:auto;image-rendering:auto;shape-rendering:auto;text-rendering:auto;enable-background:accumulate"
     d="m 24,20 c -0.930911,0 -1.896411,0.298964 -2.693359,1.007812 -0.796949,0.708849 -1.30756,1.870516 -1.306641,2.996094 9.18e-4,1.124421 0.512133,2.282719 1.308594,2.990235 C 22.105054,27.701656 23.0698,28 24,28 24.9302,28 25.894946,27.701656 26.691406,26.994141 27.487867,26.286625 27.999082,25.128327 28,24.003906 28.000919,22.878328 27.490308,21.716661 26.693359,21.007812 25.896411,20.298964 24.930911,20 24,20 Z m 0,3 c 0.180608,0 0.394844,0.04794 0.628906,0.255859 C 24.862969,23.463783 24.999898,23.874762 25,24 c 1.02e-4,0.124761 -0.136747,0.5357 -0.371094,0.744141 C 24.394559,24.952581 24.180502,25 24,25 23.819498,25 23.605441,24.952581 23.371094,24.744141 23.136747,24.5357 22.999898,24.124761 23,24 23.000102,23.874762 23.137031,23.463783 23.371094,23.255859 23.605156,23.047936 23.819392,23 24,23 Z"
     id="path8"
     inkscape:connector-curvature="0" />
</svg>

<svg xmlns="http://www.w3.org/2000/svg" viewBox="0 0 48 48">
 <path d="m 23.991 13 c -0.376 0 -0.735 0.035 -1.097 0.049 -4.421 0.173 -7.841 1.334 -10.21 2.553 -2.563 1.318 -4.055 2.798 -4.055 2.798 -0.841 0.876 -0.836 2.457 0.01 3.328 0.846 0.87 2.383 0.875 3.235 0.017 0 0 0.635 -0.643 2.052 -1.473 -0.416 1.171 -0.62 2.419 -0.62 3.731 0 6.05 4.812 10.996 10.687 10.996 5.875 0 10.687 -4.951 10.687 -10.996 0 -1.312 -0.204 -2.56 -0.62 -3.731 1.417 0.829 2.052 1.473 2.052 1.473 0.847 0.883 2.401 0.887 3.254 0.017 0.853 -0.878 0.848 -2.477 -0.01 -3.349 0 0 -1.492 -1.48 -4.055 -2.798 -2.369 -1.219 -5.789 -2.38 -10.21 -2.553 -0.358 -0.038 -0.73 -0.049 -1.097 -0.049 z m 0 3.456 c 3.4 0 8.108 1.602 8.108 7.541 0 5.199 -3.207 8.28 -8.108 8.28 -4.829 0 -8.04 -3.155 -8.04 -8.28 0 -5.273 4.637 -7.541 8.04 -7.541 z" style="fill:#4cb29d;color:#000"/>
 <path d="m 24 20 c -0.931 0 -1.896 0.299 -2.693 1.01 -0.797 0.709 -1.308 1.871 -1.307 2.996 0.001 1.124 0.512 2.283 1.309 2.99 c 0.796 0.708 1.761 1.01 2.691 1.01 0.93 0 1.895 -0.298 2.691 -1.01 0.796 -0.708 1.308 -1.866 1.309 -2.99 0.001 -1.126 -0.51 -2.287 -1.307 -2.996 -0.797 -0.709 -1.762 -1.01 -2.693 -1.01 m 0 3 c 0.181 0 0.395 0.048 0.629 0.256 c 0.234 0.208 0.371 0.619 0.371 0.744 c 0 0.125 -0.137 0.536 -0.371 0.744 c -0.234 0.208 -0.448 0.256 -0.629 0.256 -0.181 0 -0.395 -0.047 -0.629 -0.256 -0.234 -0.208 -0.371 -0.619 -0.371 -0.744 0 -0.125 0.137 -0.536 0.371 -0.744 0.234 -0.208 0.448 -0.256 0.629 -0.256" mix-blend-mode="normal" isolation="auto" white-space="normal" solid-opacity="1" solid-color="#000000" style="visibility:visible;shape-rendering:auto;color-interpolation-filters:linearRGB;fill:#4cb29d;opacity:1;image-rendering:auto;fill-opacity:1;stroke:none;display:inline;color:#000;fill-rule:nonzero;color-rendering:auto;color-interpolation:sRGB"/>
</svg>
